Newaita-dark/actions/16/download-later.svg

<svg height="16" viewBox="0 0 16 16" width="16" xmlns="http://www.w3.org/2000/svg"><g fill="#e0e0e0"><path d="m7.9375 1.449219c-3.09375 0-5.675781 2.101562-6.40625 4.960937h1.375c.691406-2.117187 2.679688-3.640625 5.03125-3.640625 2.933594 0 5.292969 2.363281 5.292969 5.292969 0 2.933594-2.359375 5.292969-5.292969 5.292969-.222656 0-.445312-.015625-.660156-.039063v1.328125c.21875.023438.4375.035157.660156.035157 3.664062 0 6.617188-2.953126 6.617188-6.617188s-2.953126-6.613281-6.617188-6.613281zm0 0"/><path d="m7.609375 3.433594c-.183594 0-.332031.148437-.332031.328125v4.300781c0 .367188.292968.664062.660156.664062s.664062-.296874.664062-.664062v-4.300781c0-.179688-.148437-.328125-.332031-.328125zm0 0"/><path d="m12.328125 6.546875c-.046875-.175781-.226563-.28125-.40625-.234375l-4.152344 1.113281c-.355469.09375-.5625.457031-.46875.808594.09375.355469.457031.5625.8125.46875l4.152344-1.113281c.175781-.046875.28125-.226563.234375-.402344zm0 0"/><path d="m4.300781 11.703125h-1.324219v-3.300781c0-.183594.148438-.332032.332032-.332032h.660156c.183594 0 .332031.148438.332031.332032zm0 0"/><path d="m1.324219 11.371094h4.628906l-2.316406 3.308594zm0 0"/></g></svg>

<svg xmlns="http://www.w3.org/2000/svg" xmlns:xlink="http://www.w3.org/1999/xlink" width="16px" height="16px" viewBox="0 0 16 16" version="1.1">
<g id="surface1">
     <defs>
  <style id="current-color-scheme" type="text/css">
   .ColorScheme-Text { color:#eeeeee; } .ColorScheme-Highlight { color:#424242; }
  </style>
 </defs>
<path style="fill:currentColor" class="ColorScheme-Text" d="M 7.9375 1.449219 C 4.84375 1.449219 2.261719 3.550781 1.53125 6.410156 L 2.90625 6.410156 C 3.597656 4.292969 5.585938 2.769531 7.9375 2.769531 C 10.871094 2.769531 13.230469 5.132812 13.230469 8.0625 C 13.230469 10.996094 10.871094 13.355469 7.9375 13.355469 C 7.714844 13.355469 7.492188 13.339844 7.277344 13.316406 L 7.277344 14.644531 C 7.496094 14.667969 7.714844 14.679688 7.9375 14.679688 C 11.601562 14.679688 14.554688 11.726562 14.554688 8.0625 C 14.554688 4.398438 11.601562 1.449219 7.9375 1.449219 Z M 7.9375 1.449219 "/>
     <defs>
  <style id="current-color-scheme" type="text/css">
   .ColorScheme-Text { color:#eeeeee; } .ColorScheme-Highlight { color:#424242; }
  </style>
 </defs>
<path style="fill:currentColor" class="ColorScheme-Text" d="M 7.609375 3.433594 C 7.425781 3.433594 7.277344 3.582031 7.277344 3.761719 L 7.277344 8.0625 C 7.277344 8.429688 7.570312 8.726562 7.9375 8.726562 C 8.304688 8.726562 8.601562 8.429688 8.601562 8.0625 L 8.601562 3.761719 C 8.601562 3.582031 8.453125 3.433594 8.269531 3.433594 Z M 7.609375 3.433594 "/>
     <defs>
  <style id="current-color-scheme" type="text/css">
   .ColorScheme-Text { color:#eeeeee; } .ColorScheme-Highlight { color:#424242; }
  </style>
 </defs>
<path style="fill:currentColor" class="ColorScheme-Text" d="M 12.328125 6.546875 C 12.28125 6.371094 12.101562 6.265625 11.921875 6.3125 L 7.769531 7.425781 C 7.414062 7.519531 7.207031 7.882812 7.300781 8.234375 C 7.394531 8.589844 7.757812 8.796875 8.113281 8.703125 L 12.265625 7.589844 C 12.441406 7.542969 12.546875 7.363281 12.5 7.1875 Z M 12.328125 6.546875 "/>
     <defs>
  <style id="current-color-scheme" type="text/css">
   .ColorScheme-Text { color:#eeeeee; } .ColorScheme-Highlight { color:#424242; }
  </style>
 </defs>
<path style="fill:currentColor" class="ColorScheme-Text" d="M 4.300781 11.703125 L 2.976562 11.703125 L 2.976562 8.402344 C 2.976562 8.21875 3.125 8.070312 3.308594 8.070312 L 3.96875 8.070312 C 4.152344 8.070312 4.300781 8.21875 4.300781 8.402344 Z M 4.300781 11.703125 "/>
     <defs>
  <style id="current-color-scheme" type="text/css">
   .ColorScheme-Text { color:#eeeeee; } .ColorScheme-Highlight { color:#424242; }
  </style>
 </defs>
<path style="fill:currentColor" class="ColorScheme-Text" d="M 1.324219 11.371094 L 5.953125 11.371094 L 3.636719 14.679688 Z M 1.324219 11.371094 "/>
</g>
</svg>
